!!!OTL: Lianhuahao
!!!ARE: Asia, China,ÿShandong Yanggu
!! III, 342
!!!SCT: C1765
!!!YEM: Copyright 1995, estate of Helmut Schaffrath.
**kern
*ICvox
*Ivox
*M2/4
*k[f#c#]
*D:
{8cc#
8b
8a
16b
16b
=1
8cc#
8b
4a}
=2
{8dd
8dd
8a
8b
=3
4dd
8dd
8ff#
=4
8ee
8dd
8cc#
8b
=5
4a
4a}
=6
{8a
16b
16a
8g
16g
16g
=7
8a
16b
16a
4g}
=8
{8a
8a
16b
16dd
16b
16a
=9
4g
8g
8g
=10
8a
8a
8b
8g
=11
4a
4a}
=12
{8dd
16dd
16b
8a
16a
16b
=13
8dd
16dd
16b
8a
16a
16b}
=14
{8dd
8dd
8a
8b
=15
4dd
8dd
8ff#
=16
8ee
8dd
8cc#
8b
=17
4a
4a}
=18
{8a
16b
16a
8g
16g
16g
=19
8a
16a
16b
8dd
8b}
=20
{8a
16g
16a
16b
16dd
16b
16a
=21
4g
4g
=22
8a
8a
16b
16a
8g
=23
4a
4a}
==
!!!AGN: Haozi, Huanghe wohao
!!!AMT: simple duple
!!!AIN: vox
!!!EED: Helmut Schaffrath
!!!EEV: 1.0
*-
